icon-themes/sifr_svg/cmd/lc_basicstepover.svg

<svg viewBox="0 0 24 24" xmlns="http://www.w3.org/2000/svg"><path d="m2.5 2.9960938a1.0001 1.0001 0 0 0 -1 1v4a1.0001 1.0001 0 1 0 2 0v-3h15v2.6835937l-.28125-.3710937c-.19029-.18267-.46186-.3125-.71875-.3125h-1v.4140624.5859376c0 .30945.0903.5523199.28125.75l2.71875 3.2500002c1.073-1.41667 1.64574-1.83333 2.71875-3.2500002.19095-.1976802.28125-.44055.28125-.75v-.5859376-.4140624h-1c-.25689 0-.52845.1298299-.71875.3125l-.28125.3710937v-3.6835937a1.0001 1.0001 0 0 0 -1-1zm3.2304688 3.9902343c-.1097591.0005848-.2358352.011349-.3925782.046875-.313486.071054-.7368537.3971215-.8867187.7246094-.299732.6549753-.212436 1.1405933-.203125 2.1933594-.000163 1.0072771-.0224304 1.6869471-.1621094 2.1113281-.140193.425943-.3467841.712345-1.0644531 1.148438a.91937568.91937568 0 0 0 -.3164063.326171.91937568.91937568 0 0 0 -.0761719.166016.91937568.91937568 0 0 0 -.0410156.179687.91937568.91937568 0 0 0 .0566406.451172.91937568.91937568 0 0 0 .0371094.083985.91937568.91937568 0 0 0 .046875.078125.91937568.91937568 0 0 0 .0546875.076172.91937568.91937568 0 0 0 .0605469.068359.91937568.91937568 0 0 0 .0664062.0625.91937568.91937568 0 0 0 .0742188.054687.91937568.91937568 0 0 0 .0371094.025391c.416942.253358.7063882.433431.8632812.560547s.1819074.165741.2246094.269531c.0854.20758.1386719.917365.1386719 2.4375-.0098 1.017481-.1013954 1.490795.1816406 2.142578.142031.327071.5513822.660483.8632813.742188.3118999.0817.5083613.060547.7089843.060547h1.6679688v-.003906c.0045-.000038.0073007.004006.0117187.003906a.91937568.91937568 0 0 0 -.0117187-1.837891h-.0136719c-.204896.00286-.2449161-.03028-.3144531-.091797-.06954-.061517-.1640063-.199766-.2382813-.417968-.14855-.436406-.1835937-1.124173-.1835937-1.611329 0-1.132558-.30443-2.015404-.90625-2.564453-.226653-.206778-.523257-.329275-.765625-.474609.240767-.14463.5324845-.2628.7578125-.46875.603215-.551338.9140625-1.436923.9140625-2.572266 0-.506715.0238705-1.1873391.1640625-1.613281.0701-.2129709.1559795-.342344.2265625-.4042969.070591-.061953.12863-.1035158.359375-.1035156a.9199219.9199219 0 0 0 0-1.8398437h-1.6679688c-.085802-.0033501-.1711253-.0102957-.2714843-.0097657zm8.6191402.0039063c-.100359-.000535-.185683.0064056-.271484.0097656h-1.667969v1.8398438c.230744 0 .288791.041563.359375.1035156.07058.061953.158421.1913267.228516.4042968.140195.4259407.162109 1.1065718.162109 1.6132818 0 1.135342.310849 2.020928.914063 2.572265.225846.206423.518397.323859.759765.46875-.242551.145414-.538814.267688-.765625.474609-.601822.54905-.908203 1.431896-.908203 2.564454 0 .487161-.03504 1.174922-.183594 1.611328-.074278.218203-.168744.356451-.238281.417968-.06954.061521-.109558.094657-.314453.091797h-.013672a.91937568.91937568 0 0 0 -.011718 1.837891c.0045.000063.007298-.003906.011718-.003906v.003906h1.667969c.200624 0 .397084.021163.708984-.060547s.721253-.415117.863282-.742187c.282779-.651194.191594-1.127001.18164-2.142578v-.009766c.000429-1.507625.05361-2.220985.138672-2.427734.0427-.103792.067721-.142417.224609-.269532.155571-.126043.444175-.308569.855469-.558594.0035-.002099.004313-.001806.007813-.003906a.91937568.91937568 0 0 0 .003906-.001953.91937568.91937568 0 0 0 .072266-.048828.91937568.91937568 0 0 0 .001953-.001953.91937568.91937568 0 0 0 .070312-.060547.91937568.91937568 0 0 0 .0625-.0625.91937568.91937568 0 0 0 .001953-.001953.91937568.91937568 0 0 0 .054688-.070313.91937568.91937568 0 0 0 .001953-.001953.91937568.91937568 0 0 0 .048828-.074218.91937568.91937568 0 0 0 .001953-.003907.91937568.91937568 0 0 0 .039063-.078125.91937568.91937568 0 0 0 .001953-.003906.91937568.91937568 0 0 0 .03125-.082031.91937568.91937568 0 0 0 .001953-.003907.91937568.91937568 0 0 0 .023437-.083984.91937568.91937568 0 0 0 .011719-.0625.91937568.91937568 0 0 0 .003907-.027344.91937568.91937568 0 0 0 0-.003906.91937568.91937568 0 0 0 .007812-.08789.91937568.91937568 0 0 0 0-.003907.91937568.91937568 0 0 0 0-.003906.91937568.91937568 0 0 0 -.015625-.179687.91937568.91937568 0 0 0 -.009766-.046876.91937568.91937568 0 0 0 -.009765-.039062.91937568.91937568 0 0 0 -.021485-.0625.91937568.91937568 0 0 0 -.007812-.023438.91937568.91937568 0 0 0 -.001953-.003906.91937568.91937568 0 0 0 -.035156-.080078.91937568.91937568 0 0 0 -.001954-.003906.91937568.91937568 0 0 0 -.044922-.076172.91937568.91937568 0 0 0 -.001953-.003906.91937568.91937568 0 0 0 -.050781-.070313.91937568.91937568 0 0 0 -.003906-.003906.91937568.91937568 0 0 0 -.009766-.011719.91937568.91937568 0 0 0 -.048828-.052734.91937568.91937568 0 0 0 -.066406-.0625.91937568.91937568 0 0 0 -.003906-.003906.91937568.91937568 0 0 0 -.070313-.050782.91937568.91937568 0 0 0 -.003906-.003906.91937568.91937568 0 0 0 -.033203-.021484c-.71767-.436097-.92426-.722497-1.064453-1.148438-.139678-.424381-.161947-1.10405-.16211-2.1113279v-.0078125c.0098-1.0449792.09555-1.5328844-.203125-2.1855468-.149865-.3274877-.573233-.6535557-.886718-.7246094-.156744-.035527-.282819-.04629-.392579-.046875z" fill="#555753"/></svg>

<svg xmlns="http://www.w3.org/2000/svg" viewBox="0 0 24 24">
 <path
     style="fill:#555753"
     d="M 2.5 2.9960938 A 1.0001 1.0001 0 0 0 1.5 3.9960938 L 1.5 7.9960938 A 1.0001 1.0001 0 1 0 3.5 7.9960938 L 3.5 4.9960938 L 18.5 4.9960938 L 18.5 7.6796875 L 18.21875 7.3085938 C 18.02846 7.1259238 17.75689 6.9960938 17.5 6.9960938 L 16.5 6.9960938 L 16.5 7.4101562 L 16.5 7.9960938 C 16.5 8.3055438 16.5903 8.5484137 16.78125 8.7460938 L 19.5 11.996094 C 20.573 10.579424 21.14574 10.162764 22.21875 8.7460938 C 22.4097 8.5484136 22.5 8.3055438 22.5 7.9960938 L 22.5 7.4101562 L 22.5 6.9960938 L 21.5 6.9960938 C 21.24311 6.9960938 20.97155 7.1259237 20.78125 7.3085938 L 20.5 7.6796875 L 20.5 3.9960938 A 1.0001 1.0001 0 0 0 19.5 2.9960938 L 2.5 2.9960938 z M 5.7304688 6.9863281 C 5.6207097 6.9869129 5.4946336 6.9976771 5.3378906 7.0332031 C 5.0244046 7.1042571 4.6010369 7.4303246 4.4511719 7.7578125 C 4.1514399 8.4127878 4.2387359 8.8984058 4.2480469 9.9511719 C 4.2478839 10.958449 4.2256165 11.638119 4.0859375 12.0625 C 3.9457445 12.488443 3.7391534 12.774845 3.0214844 13.210938 A 0.91937568 0.91937568 0 0 0 2.7050781 13.537109 A 0.91937568 0.91937568 0 0 0 2.6289062 13.703125 A 0.91937568 0.91937568 0 0 0 2.5878906 13.882812 A 0.91937568 0.91937568 0 0 0 2.6445312 14.333984 A 0.91937568 0.91937568 0 0 0 2.6816406 14.417969 A 0.91937568 0.91937568 0 0 0 2.7285156 14.496094 A 0.91937568 0.91937568 0 0 0 2.7832031 14.572266 A 0.91937568 0.91937568 0 0 0 2.84375 14.640625 A 0.91937568 0.91937568 0 0 0 2.9101562 14.703125 A 0.91937568 0.91937568 0 0 0 2.984375 14.757812 A 0.91937568 0.91937568 0 0 0 3.0214844 14.783203 C 3.4384264 15.036561 3.7278726 15.216634 3.8847656 15.34375 C 4.0416586 15.470866 4.066673 15.509491 4.109375 15.613281 C 4.194775 15.820861 4.2480469 16.530646 4.2480469 18.050781 C 4.2382469 19.068262 4.1466515 19.541576 4.4296875 20.193359 C 4.5717185 20.52043 4.9810697 20.853842 5.2929688 20.935547 C 5.6048687 21.017247 5.8013301 20.996094 6.0019531 20.996094 L 7.6699219 20.996094 L 7.6699219 20.992188 C 7.6744219 20.99215 7.6772226 20.996194 7.6816406 20.996094 A 0.91937568 0.91937568 0 0 0 7.6699219 19.158203 L 7.65625 19.158203 C 7.451354 19.161063 7.4113339 19.127923 7.3417969 19.066406 C 7.2722569 19.004889 7.1777906 18.86664 7.1035156 18.648438 C 6.9549656 18.212032 6.9199219 17.524265 6.9199219 17.037109 C 6.9199219 15.904551 6.6154919 15.021705 6.0136719 14.472656 C 5.7870189 14.265878 5.4904149 14.143381 5.2480469 13.998047 C 5.4888139 13.853417 5.7805314 13.735247 6.0058594 13.529297 C 6.6090744 12.977959 6.9199219 12.092374 6.9199219 10.957031 C 6.9199219 10.450316 6.9437924 9.7696919 7.0839844 9.34375 C 7.1540844 9.1307791 7.2399639 9.001406 7.3105469 8.9394531 C 7.3811379 8.8775001 7.4391769 8.8359373 7.6699219 8.8359375 A 0.9199219 0.9199219 0 0 0 7.6699219 6.9960938 L 6.0019531 6.9960938 C 5.9161511 6.9927437 5.8308278 6.9857981 5.7304688 6.9863281 z M 14.349609 6.9902344 C 14.24925 6.9896994 14.163926 6.99664 14.078125 7 L 12.410156 7 L 12.410156 8.8398438 C 12.6409 8.8398438 12.698947 8.8814068 12.769531 8.9433594 C 12.840111 9.0053124 12.927952 9.1346861 12.998047 9.3476562 C 13.138242 9.7735969 13.160156 10.454228 13.160156 10.960938 C 13.160156 12.09628 13.471005 12.981866 14.074219 13.533203 C 14.300065 13.739626 14.592616 13.857062 14.833984 14.001953 C 14.591433 14.147367 14.29517 14.269641 14.068359 14.476562 C 13.466537 15.025612 13.160156 15.908458 13.160156 17.041016 C 13.160156 17.528177 13.125116 18.215938 12.976562 18.652344 C 12.902284 18.870547 12.807818 19.008795 12.738281 19.070312 C 12.668741 19.131833 12.628723 19.164969 12.423828 19.162109 L 12.410156 19.162109 A 0.91937568 0.91937568 0 0 0 12.398438 21 C 12.402938 21.000063 12.405736 20.996094 12.410156 20.996094 L 12.410156 21 L 14.078125 21 C 14.278749 21 14.475209 21.021163 14.787109 20.939453 C 15.099009 20.857743 15.508362 20.524336 15.650391 20.197266 C 15.93317 19.546072 15.841985 19.070265 15.832031 18.054688 L 15.832031 18.044922 C 15.83246 16.537297 15.885641 15.823937 15.970703 15.617188 C 16.013403 15.513396 16.038424 15.474771 16.195312 15.347656 C 16.350883 15.221613 16.639487 15.039087 17.050781 14.789062 C 17.054281 14.786963 17.055094 14.787256 17.058594 14.785156 A 0.91937568 0.91937568 0 0 0 17.0625 14.783203 A 0.91937568 0.91937568 0 0 0 17.134766 14.734375 A 0.91937568 0.91937568 0 0 0 17.136719 14.732422 A 0.91937568 0.91937568 0 0 0 17.207031 14.671875 A 0.91937568 0.91937568 0 0 0 17.269531 14.609375 A 0.91937568 0.91937568 0 0 0 17.271484 14.607422 A 0.91937568 0.91937568 0 0 0 17.326172 14.537109 A 0.91937568 0.91937568 0 0 0 17.328125 14.535156 A 0.91937568 0.91937568 0 0 0 17.376953 14.460938 A 0.91937568 0.91937568 0 0 0 17.378906 14.457031 A 0.91937568 0.91937568 0 0 0 17.417969 14.378906 A 0.91937568 0.91937568 0 0 0 17.419922 14.375 A 0.91937568 0.91937568 0 0 0 17.451172 14.292969 A 0.91937568 0.91937568 0 0 0 17.453125 14.289062 A 0.91937568 0.91937568 0 0 0 17.476562 14.205078 A 0.91937568 0.91937568 0 0 0 17.488281 14.142578 A 0.91937568 0.91937568 0 0 0 17.492188 14.115234 A 0.91937568 0.91937568 0 0 0 17.492188 14.111328 A 0.91937568 0.91937568 0 0 0 17.5 14.023438 A 0.91937568 0.91937568 0 0 0 17.5 14.019531 A 0.91937568 0.91937568 0 0 0 17.5 14.015625 A 0.91937568 0.91937568 0 0 0 17.484375 13.835938 A 0.91937568 0.91937568 0 0 0 17.474609 13.789062 A 0.91937568 0.91937568 0 0 0 17.464844 13.75 A 0.91937568 0.91937568 0 0 0 17.443359 13.6875 A 0.91937568 0.91937568 0 0 0 17.435547 13.664062 A 0.91937568 0.91937568 0 0 0 17.433594 13.660156 A 0.91937568 0.91937568 0 0 0 17.398438 13.580078 A 0.91937568 0.91937568 0 0 0 17.396484 13.576172 A 0.91937568 0.91937568 0 0 0 17.351562 13.5 A 0.91937568 0.91937568 0 0 0 17.349609 13.496094 A 0.91937568 0.91937568 0 0 0 17.298828 13.425781 A 0.91937568 0.91937568 0 0 0 17.294922 13.421875 A 0.91937568 0.91937568 0 0 0 17.285156 13.410156 A 0.91937568 0.91937568 0 0 0 17.236328 13.357422 A 0.91937568 0.91937568 0 0 0 17.169922 13.294922 A 0.91937568 0.91937568 0 0 0 17.166016 13.291016 A 0.91937568 0.91937568 0 0 0 17.095703 13.240234 A 0.91937568 0.91937568 0 0 0 17.091797 13.236328 A 0.91937568 0.91937568 0 0 0 17.058594 13.214844 C 16.340924 12.778747 16.134334 12.492347 15.994141 12.066406 C 15.854463 11.642025 15.832194 10.962356 15.832031 9.9550781 L 15.832031 9.9472656 C 15.841831 8.9022864 15.927581 8.4143812 15.628906 7.7617188 C 15.479041 7.4342311 15.055673 7.1081631 14.742188 7.0371094 C 14.585444 7.0015824 14.459369 6.9908194 14.349609 6.9902344 z "
     />
 </svg>
